X:14347
T:Road to Recovery
M:C
L:1/8
K:D Minor
DA,B,C DFAG|cG=BG cG=BG|DA,B,C DB,B,2|DB,FB, DCGC|!
DA,B,C DFAG|cG=BG cG=BG|FBB2 AFDA,|B,DCE ^FDD2:|!
Add2 fdd2|fdgd add2|Add2 fdd2|adgd ecc2|!
BGG2 FDD2|B,DFD C3E|FDB,F DA,FD|B,DCE ^FDD2:|!
